jokah.svg

<svg height="112pt" viewBox="0 0 112 112" width="112pt" xmlns="http://www.w3.org/2000/svg"><path d="m45.33 10.93c3.14-.91 6.24-2.43 9.59-2.16 4.29.35 8.53 1.25 12.57 2.74 3.31.48 6.76.65 9.8 2.19 1.11 1.36 1.46 3.18 2.15 4.77 3.18.06 6.53-.48 9.58.68 2.08 1.22 3.2 3.47 4.41 5.46 1.26.67 2.59 1.26 3.71 2.17.25 2.46 1 5.19-.64 7.36 1.33 1.01 2.19 2.42 2.89 3.91.7.03 2.1.08 2.8.1.25.52.75 1.56 1 2.08l.24.73c-.48.88-.98 1.75-1.48 2.62 1.22.59 3.12.65 3.13 2.41-.24.88-.5 1.76-.8 2.62 1.71.28 2.66 1.56 1.25 2.97-.96 1.93-3.12 2.52-4.94 3.33-1.38-1.01-2.79-1.98-4.2-2.95.11-.79.23-1.58.35-2.37-5.35.35-10.62 1.34-15.97 1.71-2.38-1.78-5.38-1.52-8.16-1.19-1.98-1.02-4.11-1.7-6.29-2.15-1.79-1.27-3.89-1.84-6.07-1.96-2.13 2.17-4.19 6.57-7.84 4.92-3.83.21-7.64.6-11.45.93-2.88 2.18-6.73 1.39-10.1 1.76-2.52.27-4.89-.67-7.19-1.55-.1.79-.28 2.39-.38 3.19-4.04.21-8.23.22-11.9-1.73-.42.2-1.25.59-1.67.79-.48-.31-1.42-.94-1.9-1.25-.74.37-1.48.74-2.23 1.12-.98 1.15-2.22 2.11-2.93 3.47-.34-1.08-.49-2.21-.73-3.32-.48-.57-1.45-1.7-1.93-2.26v-2.12c2.01-3.32 2.26-7.3 4.08-10.7.63-.15 1.88-.44 2.5-.59.99-5.05 5.39-8 8.02-12.09 4.8-7.36 13.21-11.8 21.85-12.71 1.95-2.93 5.52-4.86 8.88-2.93m46.93 16.32c.48.58.48.58 0 0m.89 10.1c-1.67 2.9 3.33.25 0 0m2.03 3.9c.61.49.61.49 0 0m3.75 4.23c-.92.93.24 3.11 1.52 2.45.62-.9-.29-3.04-1.52-2.45m-18.53 1.48c-.23 3.34 3.1-1.17 0 0z" fill="#0ed145"/><path d="m90.05 60.09c.58-.21 1.72-.63 2.3-.83-.58.2-1.72.62-2.3.83z" fill="#0ed145"/><g fill="#fff"><path d="m92.26 27.25c.48.58.48.58 0 0z"/><path d="m97.14 26.78c1.28 2.74 1.46 5.8 2.04 8.72 1.08.8 2.14 1.63 3.01 2.65-.7-.02-2.1-.07-2.8-.1-.7-1.49-1.56-2.9-2.89-3.91 1.64-2.17.89-4.9.64-7.36z"/><path d="m93.15 37.35c3.33.25-1.67 2.9 0 0z"/><path d="m103.19 40.23c1.25 2.59 2.5 5.22 2.92 8.1 1.29.33 2.59.64 3.88.95.68.77 1.35 1.54 2.01 2.32v1.62c-1.65.64-1.98 2.13-2.01 3.72-.23.43-.68 1.28-.9 1.7.61 6.99-.3 13.95-2.64 20.55-.36 4.82-2.89 9.86-7.6 11.69-3.49 1.4-4.12 5.69-7.01 7.84-1.75 2.09-4.55 2.3-6.89 3.36-1.64.53-3.51 2.26-4.9-.3.17-.36.53-1.08.7-1.44 1.57-.69 3.13-1.38 4.69-2.08.22-3.39.36-6.78.52-10.17-.36-.94-.71-1.87-1.06-2.81 1.47-5.82 2.72-12.12-.13-17.75 1.64-1.2.89-3.39.87-5.09-.44-.04-1.32-.12-1.76-.16 2.12-.52 4.16-1.34 6.17-2.19.58-.21 1.72-.63 2.3-.83 1.45-.6 2.88-1.25 4.28-1.96-.75-.7-2.25-2.1-3-2.79-.46-.26-.93-.51-1.4-.75-1.95 1.64-4.32 2.6-6.64 3.59l-.76.44c-.28.17-.83.5-1.11.66-4.57.52-8.96 1.93-13.48 2.68-3.65.23-7.31.32-10.96.42-.1 1.42-.17 2.84-.21 4.26 4.18-.14 8.36-.06 12.54-.12 1.08 1.24 2.02 2.67 3.43 3.57 2.61.52 5.3.3 7.94.16 1.07 6.28-.2 12.63-.37 18.94.33.42 1 1.26 1.33 1.68-.42 1.98-.76 3.98-1.08 5.99-5.11 2.56-10.44 4.46-16.15 5.09l-.15.04c-.2 1.23-.37 2.46-.52 3.7l-.25-.77c-2.34.76-4.77 1.09-7.19 1.37-.79.65-1.59 1.29-2.39 1.93-1.93-.65-3.86-1.3-5.72-2.12-2.62 1.15-7.21.53-8.03-2.56-3.81 1.26-5.72-3.73-9.22-4.4-.37-1.31-.7-2.64-1.03-3.96.56-1.63 1.11-3.25 1.62-4.89-2.51-1.62-6.68-1.41-7.42-4.92-4.12-1.23-3.05-6.2-3.52-9.51 1.17-.79 2.37-1.54 3.59-2.24-1.81-2.49-5.44-1.21-6.39 1.27-.09 3.31.28 6.64.83 9.91.95.93 2.06 1.66 3.11 2.46.35.71.71 1.42 1.06 2.12 2.08.77 4.37 1.64 5.54 3.66.01 1.99-.29 3.96-.38 5.94-.8-.08-2.4-.24-3.2-.32-.78-.9-.69-2.22-1.05-3.29-2.95-.16-5.22-2.25-8.06-2.77-3.38-.82-6.9-2.4-8.59-5.63-1.07-.53-2.06-1.17-2.98-1.92.21-.35.64-1.04.85-1.38-1.31-1.14-1.61-2.78-1.7-4.42-.93-.52-1.86-1.04-2.79-1.55.31-1.51.95-2.86 2.18-3.83-.48-.64-.96-1.27-1.44-1.9-.02-4.59 2.59-9.48-.81-13.49.71-1.36 1.95-2.32 2.93-3.47.75-.38 1.49-.75 2.23-1.12.48.31 1.42.94 1.9 1.25.42-.2 1.25-.59 1.67-.79 3.67 1.95 7.86 1.94 11.9 1.73.1-.8.28-2.4.38-3.19 2.3.88 4.67 1.82 7.19 1.55 3.37-.37 7.22.42 10.1-1.76 3.81-.33 7.62-.72 11.45-.93 3.65 1.65 5.71-2.75 7.84-4.92 2.18.12 4.28.69 6.07 1.96 2.18.45 4.31 1.13 6.29 2.15 2.78-.33 5.78-.59 8.16 1.19 5.35-.37 10.62-1.36 15.97-1.71-.12.79-.24 1.58-.35 2.37 1.41.97 2.82 1.94 4.2 2.95 1.82-.81 3.98-1.4 4.94-3.33 1.41-1.41.46-2.69-1.25-2.97.3-.86.56-1.74.8-2.62-.01-1.76-1.91-1.82-3.13-2.41.5-.87 1-1.74 1.48-2.62zm-93.15 17.2c-1.15 3.57 2.07 4.74 4.63 5.69.34.24 1.02.71 1.36.95.79-.04 2.37-.11 3.15-.14 2.25 1.13.26 4.23 2.16 5.66 2.79 3.11 7.19 1.65 10.17-.34-.08-1.32-.17-2.64-.28-3.96 3.08.22 6.17.17 9.26.08l-.02-1.42.85-.15c.05-.49.15-1.45.2-1.94-3.33-1.78-7.24-1.08-10.86-1.21l-.99.12.04-.56c-2.85-.01-5.71-.01-8.56.25.12-.68.37-2.05.49-2.73-.15.52-.45 1.56-.61 2.08-2.82-.07-5.29-1.88-8.13-1.66-.46.06-1.37.18-1.83.24-.26-.24-.77-.72-1.03-.96m30.85 20.84c-2.73.66-5.45 1.55-8.3 1.4-2.69 1.66-1.98 4.67-1.87 7.33 1.28.95 2.58 1.87 3.89 2.78 4.18-.36 8.38-.65 12.44-1.8 4.5-1.36 9.22-.83 13.82-1.6 3.9.87 7.89.54 11.85.81.68-1.11 1.34-2.23 1.96-3.37-2.06-1.49-4.24-2.85-5.75-4.97-2.75-.31-5.48-.74-8.15-1.48-6.63-1.31-13.26.73-19.89.9z"/><path d="m95.18 41.25c.61.49.61.49 0 0z"/><path d="m98.93 45.48c1.23-.59 2.14 1.55 1.52 2.45-1.28.66-2.44-1.52-1.52-2.45z"/><path d="m80.4 46.96c3.1-1.17-.23 3.34 0 0z"/></g><path d="m85.59 57.35c2.32-.99 4.69-1.95 6.64-3.59.47.24.94.49 1.4.75-2.85 1.3-5.79 2.38-8.8 3.28z" fill="#010000"/><path d="m10.04 57.43c.26.24.77.72 1.03.96l-.13.59c.34 1.99 2.38 2.9 3.73 4.14-2.56-.95-5.78-2.12-4.63-5.69z" fill="#010000"/><path d="m12.9 58.15c2.84-.22 5.31 1.59 8.13 1.66.16-.52.46-1.56.61-2.08-.12.68-.37 2.05-.49 2.73 2.85-.26 5.71-.26 8.56-.25l-.04.56c-4.16.49-8.35.13-12.53.1-1.41-.9-2.81-1.83-4.24-2.72z" fill="#010000"/><path d="m59.28 61.55c3.65-.1 7.31-.19 10.96-.42-3.46.56-6.98.67-10.48.87.17.53.51 1.58.68 2.1 7.93 2.14 15.52-1.79 23.44-1.82l1.76.16c.02 1.7.77 3.89-.87 5.09-.45.47-1.34 1.42-1.79 1.89-2.64.14-5.33.36-7.94-.16-1.41-.9-2.35-2.33-3.43-3.57-4.18.06-8.36-.02-12.54.12.04-1.42.11-2.84.21-4.26z" fill="#010000"/><path d="m19.18 63.93c7.09.48 14.2.82 21.29.02l.02 1.42c-3.09.09-6.18.14-9.26-.08.11 1.32.2 2.64.28 3.96-2.98 1.99-7.38 3.45-10.17.34-1.9-1.43.09-4.53-2.16-5.66z" fill="#010000"/><path d="m84.83 57.79c3.01-.9 5.95-1.98 8.8-3.28.75.69 2.25 2.09 3 2.79-1.4.71-2.83 1.36-4.28 1.96-.58.2-1.72.62-2.3.83-2.01.85-4.05 1.67-6.17 2.19-7.92.03-15.51 3.96-23.44 1.82-.17-.52-.51-1.57-.68-2.1 3.5-.2 7.02-.31 10.48-.87 4.52-.75 8.91-2.16 13.48-2.68.28-.16.83-.49 1.11-.66z" fill="#01a8f2"/><path d="m11.07 58.39c.46-.06 1.37-.18 1.83-.24 1.43.89 2.83 1.82 4.24 2.72 4.18.03 8.37.39 12.53-.1l.99-.12c3.62.13 7.53-.57 10.86 1.21-.05.49-.15 1.45-.2 1.94l-.85.15c-7.09.8-14.2.46-21.29-.02-.78.03-2.36.1-3.15.14-.34-.24-1.02-.71-1.36-.95-1.35-1.24-3.39-2.15-3.73-4.14z" fill="#01a8f2"/><path d="m82.98 69.42c.45-.47 1.34-1.42 1.79-1.89 2.85 5.63 1.6 11.93.13 17.75.35.94.7 1.87 1.06 2.81-.16 3.39-.3 6.78-.52 10.17-1.56.7-3.12 1.39-4.69 2.08-4.47 2.05-9.64 1.93-13.88 4.52-.05-1.25-.1-2.5-.16-3.74 5.71-.63 11.04-2.53 16.15-5.09.32-2.01.66-4.01 1.08-5.99-.33-.42-1-1.26-1.33-1.68.17-6.31 1.44-12.66.37-18.94z" fill="#01a8f2"/><path d="m20.09 74.06c.95-2.48 4.58-3.76 6.39-1.27-1.22.7-2.42 1.45-3.59 2.24.47 3.31-.6 8.28 3.52 9.51.74 3.51 4.91 3.3 7.42 4.92-.51 1.64-1.06 3.26-1.62 4.89.33 1.32.66 2.65 1.03 3.96.5 2.24 2.48 3.5 3.99 5.02.14 1.75-2.49 1.09-3.61 1.51-1.28-2.14-2.55-4.32-3.37-6.69.09-1.98.39-3.95.38-5.94-1.17-2.02-3.46-2.89-5.54-3.66-.35-.7-.71-1.41-1.06-2.12-1.05-.8-2.16-1.53-3.11-2.46-.55-3.27-.92-6.6-.83-9.91z" fill="#01a8f2"/><path d="m40.89 78.27c6.63-.17 13.26-2.21 19.89-.9 2.67.74 5.4 1.17 8.15 1.48 1.51 2.12 3.69 3.48 5.75 4.97-.62 1.14-1.28 2.26-1.96 3.37-3.96-.27-7.95.06-11.85-.81-4.6.77-9.32.24-13.82 1.6-4.06 1.15-8.26 1.44-12.44 1.8-1.31-.91-2.61-1.83-3.89-2.78-.11-2.66-.82-5.67 1.87-7.33 2.85.15 5.57-.74 8.3-1.4z" fill="#ec1c24"/></svg>

<?xml version="1.0" encoding="UTF-8" ?>
<!DOCTYPE svg PUBLIC "-//W3C//DTD SVG 1.1//EN" "http://www.w3.org/Graphics/SVG/1.1/DTD/svg11.dtd">
<svg width="112pt" height="112pt" viewBox="0 0 112 112" version="1.1" xmlns="http://www.w3.org/2000/svg">
<g id="#0ed145ff">
<path fill="#0ed145" opacity="1.00" d=" M 45.33 10.93 C 48.47 10.02 51.57 8.50 54.92 8.77 C 59.21 9.12 63.45 10.02 67.49 11.51 C 70.80 11.99 74.25 12.16 77.29 13.70 C 78.40 15.06 78.75 16.88 79.44 18.47 C 82.62 18.53 85.97 17.99 89.02 19.15 C 91.10 20.37 92.22 22.62 93.43 24.61 C 94.69 25.28 96.02 25.87 97.14 26.78 C 97.39 29.24 98.14 31.97 96.50 34.14 C 97.83 35.15 98.69 36.56 99.39 38.05 C 100.09 38.08 101.49 38.13 102.19 38.15 C 102.44 38.67 102.94 39.71 103.19 40.23 L 103.43 40.96 C 102.95 41.84 102.45 42.71 101.95 43.58 C 103.17 44.17 105.07 44.23 105.08 45.99 C 104.84 46.87 104.58 47.75 104.28 48.61 C 105.99 48.89 106.94 50.17 105.53 51.58 C 104.57 53.51 102.41 54.10 100.59 54.91 C 99.21 53.90 97.80 52.93 96.39 51.96 C 96.50 51.17 96.62 50.38 96.74 49.59 C 91.39 49.94 86.12 50.93 80.77 51.30 C 78.39 49.52 75.39 49.78 72.61 50.11 C 70.63 49.09 68.50 48.41 66.32 47.96 C 64.53 46.69 62.43 46.12 60.25 46.00 C 58.12 48.17 56.06 52.57 52.41 50.92 C 48.58 51.13 44.77 51.52 40.96 51.85 C 38.08 54.03 34.23 53.24 30.86 53.61 C 28.34 53.88 25.97 52.94 23.67 52.06 C 23.57 52.85 23.39 54.45 23.29 55.25 C 19.25 55.46 15.06 55.47 11.39 53.52 C 10.97 53.72 10.14 54.11 9.72 54.31 C 9.24 54.00 8.30 53.37 7.82 53.06 C 7.08 53.43 6.34 53.80 5.59 54.18 C 4.61 55.33 3.37 56.29 2.66 57.65 C 2.32 56.57 2.17 55.44 1.93 54.33 C 1.45 53.76 0.48 52.63 0.00 52.07 L 0.00 49.95 C 2.01 46.63 2.26 42.65 4.08 39.25 C 4.71 39.10 5.96 38.81 6.58 38.66 C 7.57 33.61 11.97 30.66 14.60 26.57 C 19.40 19.21 27.81 14.77 36.45 13.86 C 38.40 10.93 41.97 9.00 45.33 10.93 M 92.26 27.25 C 92.74 27.83 92.74 27.83 92.26 27.25 M 93.15 37.35 C 91.48 40.25 96.48 37.60 93.15 37.35 M 95.18 41.25 C 95.79 41.74 95.79 41.74 95.18 41.25 M 98.93 45.48 C 98.01 46.41 99.17 48.59 100.45 47.93 C 101.07 47.03 100.16 44.89 98.93 45.48 M 80.40 46.96 C 80.17 50.30 83.50 45.79 80.40 46.96 Z" />
<path fill="#0ed145" opacity="1.00" d=" M 90.05 60.09 C 90.63 59.88 91.77 59.46 92.35 59.26 C 91.77 59.46 90.63 59.88 90.05 60.09 Z" />
</g>
<g id="#ffffffff">
<path fill="#ffffff" opacity="1.00" d=" M 92.26 27.25 C 92.74 27.83 92.74 27.83 92.26 27.25 Z" />
<path fill="#ffffff" opacity="1.00" d=" M 97.14 26.78 C 98.42 29.52 98.60 32.58 99.18 35.50 C 100.26 36.30 101.32 37.13 102.19 38.15 C 101.49 38.13 100.09 38.08 99.39 38.05 C 98.69 36.56 97.83 35.15 96.50 34.14 C 98.14 31.97 97.39 29.24 97.14 26.78 Z" />
<path fill="#ffffff" opacity="1.00" d=" M 93.15 37.35 C 96.48 37.60 91.48 40.25 93.15 37.35 Z" />
<path fill="#ffffff" opacity="1.00" d=" M 103.19 40.23 C 104.44 42.82 105.69 45.45 106.11 48.33 C 107.40 48.66 108.70 48.97 109.99 49.28 C 110.67 50.05 111.34 50.82 112.00 51.60 L 112.00 53.22 C 110.35 53.86 110.02 55.35 109.99 56.94 C 109.76 57.37 109.31 58.22 109.09 58.64 C 109.70 65.63 108.79 72.59 106.45 79.19 C 106.09 84.01 103.56 89.05 98.85 90.88 C 95.36 92.28 94.73 96.57 91.84 98.72 C 90.09 100.81 87.29 101.02 84.95 102.08 C 83.31 102.61 81.44 104.34 80.05 101.78 C 80.22 101.42 80.58 100.70 80.75 100.34 C 82.32 99.65 83.88 98.96 85.44 98.26 C 85.66 94.87 85.80 91.48 85.96 88.09 C 85.60 87.15 85.25 86.22 84.90 85.28 C 86.37 79.46 87.62 73.16 84.77 67.53 C 86.41 66.33 85.66 64.14 85.64 62.44 C 85.20 62.40 84.32 62.32 83.88 62.28 C 86.00 61.76 88.04 60.94 90.05 60.09 C 90.63 59.88 91.77 59.46 92.35 59.26 C 93.80 58.66 95.23 58.01 96.63 57.30 C 95.88 56.60 94.38 55.20 93.63 54.51 C 93.17 54.25 92.70 54.00 92.23 53.76 C 90.28 55.40 87.91 56.36 85.59 57.35 L 84.83 57.79 C 84.55 57.96 84.00 58.29 83.72 58.45 C 79.15 58.97 74.76 60.38 70.24 61.13 C 66.59 61.36 62.93 61.45 59.28 61.55 C 59.18 62.97 59.11 64.39 59.07 65.81 C 63.25 65.67 67.43 65.75 71.61 65.69 C 72.69 66.93 73.63 68.36 75.04 69.26 C 77.65 69.78 80.34 69.56 82.98 69.42 C 84.05 75.70 82.78 82.05 82.61 88.36 C 82.94 88.78 83.61 89.62 83.94 90.04 C 83.52 92.02 83.18 94.02 82.86 96.03 C 77.75 98.59 72.42 100.49 66.71 101.12 L 66.56 101.16 C 66.36 102.39 66.19 103.62 66.04 104.86 L 65.79 104.09 C 63.45 104.85 61.02 105.18 58.60 105.46 C 57.81 106.11 57.01 106.75 56.21 107.39 C 54.28 106.74 52.35 106.09 50.49 105.27 C 47.87 106.42 43.28 105.80 42.46 102.71 C 38.65 103.97 36.74 98.98 33.24 98.31 C 32.87 97.00 32.54 95.67 32.21 94.35 C 32.77 92.72 33.32 91.10 33.83 89.46 C 31.32 87.84 27.15 88.05 26.41 84.54 C 22.29 83.31 23.36 78.34 22.89 75.03 C 24.06 74.24 25.26 73.49 26.48 72.79 C 24.67 70.30 21.04 71.58 20.09 74.06 C 20.00 77.37 20.37 80.70 20.92 83.97 C 21.87 84.90 22.98 85.63 24.03 86.43 C 24.38 87.14 24.74 87.85 25.09 88.55 C 27.17 89.32 29.46 90.19 30.63 92.21 C 30.64 94.20 30.34 96.17 30.25 98.15 C 29.45 98.07 27.85 97.91 27.05 97.83 C 26.27 96.93 26.36 95.61 26.00 94.54 C 23.05 94.38 20.78 92.29 17.94 91.77 C 14.56 90.95 11.04 89.37 9.35 86.14 C 8.28 85.61 7.29 84.97 6.37 84.22 C 6.58 83.87 7.01 83.18 7.22 82.84 C 5.91 81.70 5.61 80.06 5.52 78.42 C 4.59 77.90 3.66 77.38 2.73 76.87 C 3.04 75.36 3.68 74.01 4.91 73.04 C 4.43 72.40 3.95 71.77 3.47 71.14 C 3.45 66.55 6.06 61.66 2.66 57.65 C 3.37 56.29 4.61 55.33 5.59 54.18 C 6.34 53.80 7.08 53.43 7.82 53.06 C 8.30 53.37 9.24 54.00 9.72 54.31 C 10.14 54.11 10.97 53.72 11.39 53.52 C 15.06 55.47 19.25 55.46 23.29 55.25 C 23.39 54.45 23.57 52.85 23.67 52.06 C 25.97 52.94 28.34 53.88 30.86 53.61 C 34.23 53.24 38.08 54.03 40.96 51.85 C 44.77 51.52 48.58 51.13 52.41 50.92 C 56.06 52.57 58.12 48.17 60.25 46.00 C 62.43 46.12 64.53 46.69 66.32 47.96 C 68.50 48.41 70.63 49.09 72.61 50.11 C 75.39 49.78 78.39 49.52 80.77 51.30 C 86.12 50.93 91.39 49.94 96.74 49.59 C 96.62 50.38 96.50 51.17 96.39 51.96 C 97.80 52.93 99.21 53.90 100.59 54.91 C 102.41 54.10 104.57 53.51 105.53 51.58 C 106.94 50.17 105.99 48.89 104.28 48.61 C 104.58 47.75 104.84 46.87 105.08 45.99 C 105.07 44.23 103.17 44.17 101.95 43.58 C 102.45 42.71 102.95 41.84 103.43 40.96 L 103.19 40.23 M 10.04 57.43 C 8.89 61.00 12.11 62.17 14.67 63.12 C 15.01 63.36 15.69 63.83 16.03 64.07 C 16.82 64.03 18.40 63.96 19.18 63.93 C 21.43 65.06 19.44 68.16 21.34 69.59 C 24.13 72.70 28.53 71.24 31.51 69.25 C 31.43 67.93 31.34 66.61 31.23 65.29 C 34.31 65.51 37.40 65.46 40.49 65.37 L 40.47 63.95 L 41.32 63.80 C 41.37 63.31 41.47 62.35 41.52 61.86 C 38.19 60.08 34.28 60.78 30.66 60.65 L 29.67 60.77 L 29.71 60.21 C 26.86 60.20 24.00 60.20 21.15 60.46 C 21.27 59.78 21.52 58.41 21.64 57.73 C 21.49 58.25 21.19 59.29 21.03 59.81 C 18.21 59.74 15.74 57.93 12.90 58.15 C 12.44 58.21 11.53 58.33 11.07 58.39 C 10.81 58.15 10.30 57.67 10.04 57.43 M 40.89 78.27 C 38.16 78.93 35.44 79.82 32.59 79.67 C 29.90 81.33 30.61 84.34 30.72 87.00 C 32.00 87.95 33.30 88.87 34.61 89.78 C 38.79 89.42 42.99 89.13 47.05 87.98 C 51.55 86.62 56.27 87.15 60.87 86.38 C 64.77 87.25 68.76 86.92 72.72 87.19 C 73.40 86.08 74.06 84.96 74.68 83.82 C 72.62 82.33 70.44 80.97 68.93 78.85 C 66.18 78.54 63.45 78.11 60.78 77.37 C 54.15 76.06 47.52 78.10 40.89 78.27 Z" />
<path fill="#ffffff" opacity="1.00" d=" M 95.18 41.25 C 95.79 41.74 95.79 41.74 95.18 41.25 Z" />
<path fill="#ffffff" opacity="1.00" d=" M 98.93 45.48 C 100.16 44.89 101.07 47.03 100.45 47.93 C 99.17 48.59 98.01 46.41 98.93 45.48 Z" />
<path fill="#ffffff" opacity="1.00" d=" M 80.40 46.96 C 83.50 45.79 80.17 50.30 80.40 46.96 Z" />
</g>
<g id="#010000ff">
<path fill="#010000" opacity="1.00" d=" M 85.59 57.35 C 87.91 56.36 90.28 55.40 92.23 53.76 C 92.70 54.00 93.17 54.25 93.63 54.51 C 90.78 55.81 87.84 56.89 84.83 57.79 L 85.59 57.35 Z" />
<path fill="#010000" opacity="1.00" d=" M 10.04 57.43 C 10.30 57.67 10.81 58.15 11.07 58.39 L 10.94 58.98 C 11.28 60.97 13.32 61.88 14.67 63.12 C 12.11 62.17 8.89 61.00 10.04 57.43 Z" />
<path fill="#010000" opacity="1.00" d=" M 12.90 58.15 C 15.74 57.93 18.21 59.74 21.03 59.81 C 21.19 59.29 21.49 58.25 21.64 57.73 C 21.52 58.41 21.27 59.78 21.15 60.46 C 24.00 60.20 26.86 60.20 29.71 60.21 L 29.67 60.77 C 25.51 61.26 21.32 60.90 17.14 60.87 C 15.73 59.97 14.33 59.04 12.90 58.15 Z" />
<path fill="#010000" opacity="1.00" d=" M 59.28 61.55 C 62.93 61.45 66.59 61.36 70.24 61.13 C 66.78 61.69 63.26 61.80 59.76 62.00 C 59.93 62.53 60.27 63.58 60.44 64.10 C 68.37 66.24 75.96 62.31 83.88 62.28 C 84.32 62.32 85.20 62.40 85.64 62.44 C 85.66 64.14 86.41 66.33 84.77 67.53 C 84.32 68.00 83.43 68.95 82.98 69.42 C 80.34 69.56 77.65 69.78 75.04 69.26 C 73.63 68.36 72.69 66.93 71.61 65.69 C 67.43 65.75 63.25 65.67 59.07 65.81 C 59.11 64.39 59.18 62.97 59.28 61.55 Z" />
<path fill="#010000" opacity="1.00" d=" M 19.18 63.93 C 26.27 64.41 33.38 64.75 40.47 63.95 L 40.49 65.37 C 37.40 65.46 34.31 65.51 31.23 65.29 C 31.34 66.61 31.43 67.93 31.51 69.25 C 28.53 71.24 24.13 72.70 21.34 69.59 C 19.44 68.16 21.43 65.06 19.18 63.93 Z" />
</g>
<g id="#01a8f2ff">
<path fill="#01a8f2" opacity="1.00" d=" M 84.83 57.79 C 87.84 56.89 90.78 55.81 93.63 54.51 C 94.38 55.20 95.88 56.60 96.63 57.30 C 95.23 58.01 93.80 58.66 92.35 59.26 C 91.77 59.46 90.63 59.88 90.05 60.09 C 88.04 60.94 86.00 61.76 83.88 62.28 C 75.96 62.31 68.37 66.24 60.44 64.10 C 60.27 63.58 59.93 62.53 59.76 62.00 C 63.26 61.80 66.78 61.69 70.24 61.13 C 74.76 60.38 79.15 58.97 83.72 58.45 C 84.00 58.29 84.55 57.96 84.83 57.79 Z" />
<path fill="#01a8f2" opacity="1.00" d=" M 11.07 58.39 C 11.53 58.33 12.44 58.21 12.90 58.15 C 14.33 59.04 15.73 59.97 17.14 60.87 C 21.32 60.90 25.51 61.26 29.67 60.77 L 30.66 60.65 C 34.28 60.78 38.19 60.08 41.52 61.86 C 41.47 62.35 41.37 63.31 41.32 63.80 L 40.47 63.95 C 33.38 64.75 26.27 64.41 19.18 63.93 C 18.40 63.96 16.82 64.03 16.03 64.07 C 15.69 63.83 15.01 63.36 14.67 63.12 C 13.32 61.88 11.28 60.97 10.94 58.98 L 11.07 58.39 Z" />
<path fill="#01a8f2" opacity="1.00" d=" M 82.98 69.42 C 83.43 68.95 84.32 68.00 84.77 67.53 C 87.62 73.16 86.37 79.46 84.90 85.28 C 85.25 86.22 85.60 87.15 85.96 88.09 C 85.80 91.48 85.66 94.87 85.44 98.26 C 83.88 98.96 82.32 99.65 80.75 100.34 C 76.28 102.39 71.11 102.27 66.87 104.86 C 66.82 103.61 66.77 102.36 66.71 101.12 C 72.42 100.49 77.75 98.59 82.86 96.03 C 83.18 94.02 83.52 92.02 83.94 90.04 C 83.61 89.62 82.94 88.78 82.61 88.36 C 82.78 82.05 84.05 75.70 82.98 69.42 Z" />
<path fill="#01a8f2" opacity="1.00" d=" M 20.09 74.06 C 21.04 71.58 24.67 70.30 26.48 72.79 C 25.26 73.49 24.06 74.24 22.89 75.03 C 23.36 78.34 22.29 83.31 26.41 84.54 C 27.15 88.05 31.32 87.84 33.83 89.46 C 33.32 91.10 32.77 92.72 32.21 94.35 C 32.54 95.67 32.87 97.00 33.24 98.31 C 33.74 100.55 35.72 101.81 37.23 103.33 C 37.37 105.08 34.74 104.42 33.62 104.84 C 32.34 102.70 31.07 100.52 30.25 98.15 C 30.34 96.17 30.64 94.20 30.63 92.21 C 29.46 90.19 27.17 89.32 25.09 88.55 C 24.74 87.85 24.38 87.14 24.03 86.43 C 22.98 85.63 21.87 84.90 20.92 83.97 C 20.37 80.70 20.00 77.37 20.09 74.06 Z" />
</g>
<g id="#ec1c24ff">
<path fill="#ec1c24" opacity="1.00" d=" M 40.89 78.27 C 47.52 78.10 54.15 76.06 60.78 77.37 C 63.45 78.11 66.18 78.54 68.93 78.85 C 70.44 80.97 72.62 82.33 74.68 83.82 C 74.06 84.96 73.40 86.08 72.72 87.19 C 68.76 86.92 64.77 87.25 60.87 86.38 C 56.27 87.15 51.55 86.62 47.05 87.98 C 42.99 89.13 38.79 89.42 34.61 89.78 C 33.30 88.87 32.00 87.95 30.72 87.00 C 30.61 84.34 29.90 81.33 32.59 79.67 C 35.44 79.82 38.16 78.93 40.89 78.27 Z" />
</g>
</svg>
